T: Horologist's, The
M: 4/4
L: 1/8
K: Emin
|: Bc | BEE/E/^D EFGA | ~ & ~ |: B^A | BE ~E2 ~E2 F/G/A | ~|: B^A | B^Aec B=AGE | ~
